X:2667
T:The Irish Rose
O:Ireland
M:3/4
L:1/8
Q:1/4=
K:Bb
V:1
DE |F2 G2 A2 |B2 d2 c2 |c2 B2 G2 |
B4 DE |F2 G2 B2 |c2 d3 c|(c6) |
c4) DE |F2 G2 A2 |B2 d2 c2 |c2 B2 G2 |
B4 DE |F2 G2 B2 |c2 B3 A|(B6 |
B2) z2 d2 |c2 d2 e2 |e4 dc |B2 c2 d2 |
d4 dd |d2 c2 B2 |G2 A2 B2 |(c6 |
c2) z2 DE |F2 G2 B2 |B2 d2 c2 |c2 B2 G2 |
B4 DE |F2 G2 B2 |c2 B2 A2 |B6 |
B2 z2 F2 |{(c}d6) |{(c}{e} d4) c2 |(B6 |
B6) |{(A}B2) B3 B|A4 G2 |(F6 |
F4) DD |F4 GG |F4 DD |F4 GG |
F4 AB |G6 |A4 cc |(c6 |
c4) FF |d6 |d4 c2 |(B6 |
B6) |B2 B2 B2 |B2 A3 G|(F6 |
F4) DD |F2 G2 F2 |F4 DD |F2 G2 F2 |
F2 z2 A2 |B2 B2 d2 |{(d}c4) B2 |(B6 |
B4) |]
V:2          %2e Fluit
z2 |D6 |D6 |E6 |
D4 z2 |D6 |=E6 |A6 |
E4 z2 |D6 |D6 |E6) |
D4 z2 |F6 |A6 |(D6 |
D2) z2 F2 |E2 F2 G2 |G4 FE |D2 E2 F2 |
F4 ^F2 |D6 |=E6 |A6 |
E2 z4 |D6 |D6 |E6 |
D4 z2 |F6 |E6 |D6 |
D2 z2 F2 |B6 |^F6 |(F6 |
F4) D2 |G2 B3 G|F4 zE |(F6 |
F4) z2 |F4 GG |D4 DD |F4 GG |
D4 AB |G4 z=E |A4 cc |E2 [A2E2]G[GE]|
[F4E4]FF |B6 |^F6 |G6 |
D6 |B2 G2 B2 |G2 F3 E|D6 |
D4 DD |F2 G2 D2 |D4 DD |F2 G2 D2 |
D2 z2 A2 |F2 =E2 d2 |c4 B2 |z2 F2 E2 |
D4 |]
V:3          %Accordeon (RH)
z2 |[F6B,6]|[^F6B,6]|[G6B,6]|
B,2 F2 z2 |[F6B,6]|[B6G6]|[A2F6]G2 B2 |
[A2F2]F,2 z2 |[F6B,6]|[^F6B,6]|[G6B,6]|
B,2 F2 z2 |[B6D6]|A2 G2 ^F2 |B,2 G2 F2 |
B2 B,2 z2 |F,2 F4 |F,2 [A2e2 F2]z2 |B,2 F4 |
B,2 B2 A2 |[B2G2]A2 G2 |[B2C6]A2 G2 |[A2F6]G2 B2 |
[A2F2]F,2 z2 |[F6B,6]|[^F6B,6]|[G6B,6]|
B,2 F2 z2 |[B6D6]|G2 ^F2 F2 |B,2 G2 F2 |
B2 B,2 z2 |B,2 F2 B2 |B,2 A4 |B,2 F2 B2 |
A2 G2 F2 |E2 G2 B2 |E,2 B4 |C2 F2 A2 |
G2 F2 =B,2 |C2 A4 |B,2 F2 =B,2 |C2 A4 |
B,2 F2 z2 |C2 [B2=E2][B2=E2]|C,2 [=E4B4 C4]|F,2 F2 G2 |
A2 F2 z2 |B,2 F2 B2 |A,2 ^F2 A2 |B,2 F2 B2 |
A2 G2 F2 |E2 G2 B2 |E,2 B4 |D2 F2 A2 |
G2 F2 =B,2 |C2 G4 |B,2 F2 =B,2 |C2 G4 |
B,2 F2 C2 |F4 [F2D2]|[A2F2]G2 F2 |D2 F2 G2 |
f2 .F2 |]
V:4          %Accordeon (LH)
z2 |B6 |B6 |B6 |
B2 F,2 z2 |B,6 |G,6 |F,2 G,2 B,2 |
F,2 F,2 z2 |B,6 |B,6 |B,6 |
B,2 F,2 z2 |D,6 |A,2 G,2 ^F,2 |B,2 G,2 F,2 |
B,2 B,2 z2 |F,2 F,4 |F,2 F,2 z2 |B,2 F,4 |
B,2 B,2 A,2 |G,2 A,2 G,2 |B,2 A,2 G,2 |A,2 G,2 B,2 |
F,2 F,2 z2 |B,6 |B,6 |B,6 |
B,2 F,2 z2 |D,6 |G,2 ^F,2 F,2 |B,2 G,2 F,2 |
B,2 B,2 z2 |B,2 F,2 B,2 |B,2 A,4 |B,2 F,2 B,2 |
A,2 G,2 F,2 |E,2 G,2 B,2 |E,2 B,4 |C,2 F,2 A,2 |
G,2 F,2 =B,2 |C,2 A,4 |B,2 F,2 =B,2 |C,2 A,4 |
B,2 F,2 z2 |C,2 =E,2 =E,2 |C,2 C,4 |F,2 F,2 G,2 |
A,2 F,2 z2 |B,2 F,2 B,2 |A,2 ^F,2 A,2 |B,2 F,2 B,2 |
A,2 G,2 F,2 |E,2 G,2 B,2 |E,2 B,4 |D,2 F,2 A,2 |
G,2 F,2 =B,2 |C,2 G,4 |B,2 F,2 =B,2 |C,2 G,4 |
B,2 F,2 C,2 |F,4 D,2 |F,2 G,2 F,2 |B,2 F,2 G,2 |
F,2 .F,2 |]
